X: 10531
T: JOHNNY MILLICENT'S HORNPIPE
C: Arr. by W. B. Laybourn
R: hornpipe, reel
B: K\"ohler's Violin Repository, v.1, 1885 p.53 #1
F: http://www.archive.org/details/klersviolinrepos01edin
Z: 2011 John Chambers <jc:trillian.mit.edu>
M: C|
L: 1/8
K: D
(uag) |\
fadf AdFA | DFAd f2(g>f) |\
gb eg ce AF | GABG E2(ag) |\
fa df Ad FA | DFAd f2(g>f) |
gbge cABc | d2f2 d2 :: uF2 |\
{A}GFGA Bcde | f3(e dc)dB |\
A2f2 (fA) (fA) | G2e2 (eG) (eF) |
{A}GFGA Bcde | f3(e dc)dB |\
Afed cABc | d2{e}f2 d2 :: (uag) |\
(3fgf (3efe (3ded (3cdc | (3BcB (3ABA G2(gf) |
(3efe (3ded (3cdc (3BcB | (3ABA (3GAG F2(ag) |\
(3fgf (3efe (3ded (3cdc | (3BcB (3ABA (3GAG (3FGF |\
E2(ed) cABc | d2f2 d2 :|

%%sep 2 1 500

